Resources/Images/SVG/Universal/Delete.svg

<svg x="0" y="0" width="48" height="48" version="1.1" xmlns="http://www.w3.org/2000/svg" xmlns:xlink="http://www.w3.org/1999/xlink"><defs><linearGradient x1="14.42529" y1="11.68966" x2="54.78791" y2="57.52354" gradientUnits="userSpaceOnUse" id="color-1"><stop offset="0" stop-color="#000000" stop-opacity="0.7"></stop><stop offset="1" stop-color="#000000" stop-opacity="0"></stop></linearGradient><filter id="dropshadow"><feColorMatrix type="matrix" values="0 0 0 0 .05  0 0 0 0 .15  0 0 0 0 .1  0 0 0 .8 0"></feColorMatrix> <feOffset dx="0" dy="1"></feOffset> <feGaussianBlur stdDeviation="1"></feGaussianBlur> <feComposite in="SourceGraphic"></feComposite></filter></defs><g fill="none" stroke="none" stroke-width="none" stroke-linecap="butt" stroke-linejoin="miter" stroke-miterlimit="none" stroke-dasharray="" stroke-dashoffset="0" font-family="none" font-weight="normal" font-size="none" text-anchor="start" mix-blend-mode="normal"><g fill="#000000" stroke="none" stroke-width="1" stroke-miterlimit="4" font-family="&quot;Open Sans&quot;, sans-serif" font-size="14"></g><path d="M5,45c-1.10457,0 -2,-0.89543 -2,-2l0,-38c0,-1.10457 0.89543,-2 2,-2l38,0c1.10457,0 2,0.89543 2,2l0,38c0,1.10457 -0.89543,2 -2,2z" fill="#d50000" stroke-width="1" stroke-miterlimit="10" font-family="sans-serif" font-size="12" filter="url(#dropshadow)"></path><path d="M18.52874,36.31034l0.00001,0l-2.73564,-2.73564l0,-16.41377l-1.36782,-1.36782l0,-2.73563c0,0 2.73563,2.73563 2.73563,2.73563l0.00001,0c0,0 -2.73563,-2.73563 -2.73563,-2.73563l4.78734,0l1.36782,-1.36782l6.83908,0c0,0 1.36782,1.36782 1.36782,1.36782l4.78735,0l11.42529,11.42529l0,18.51723c0,1.10457 -0.89543,2 -2,2l-16.91005,0l-9.49325,-9.49325c-0.49583,-0.49583 -0.80359,-1.17974 -0.80359,-1.93204z" fill="url(#color-1)" stroke-width="1" stroke-miterlimit="10" font-family="sans-serif" font-size="12"></path><path d="M15.79311,17.16092l16.41378,0l0,16.41378c0,1.5046 -1.23103,2.73563 -2.73563,2.73563l-10.94252,0c-1.5046,0 -2.73563,-1.23103 -2.73563,-2.73563z M22.06454,26.73563l-2.89977,2.89977l1.93546,1.93546l2.89977,-2.89977l2.89977,2.89977l1.93546,-1.93546l-2.89977,-2.89977l2.89977,-2.89977l-1.93546,-1.93546l-2.89977,2.89977l-2.89977,-2.89977l-1.93546,1.93546z M33.57471,13.05748l0,2.73563l-19.14941,0l0,-2.73563l4.78735,0l1.36782,-1.36782l6.83908,0l1.36782,1.36782z" fill="#ffffff" stroke="none" stroke-width="0" stroke-miterlimit="4" font-family="&quot;Open Sans&quot;, sans-serif" font-size="14"></path></g></svg>

<?xml version="1.0" encoding="UTF-8" standalone="no"?>
<svg
   xmlns:dc="http://purl.org/dc/elements/1.1/"
   xmlns:cc="http://creativecommons.org/ns#"
   xmlns:rdf="http://www.w3.org/1999/02/22-rdf-syntax-ns#"
   xmlns:svg="http://www.w3.org/2000/svg"
   xmlns="http://www.w3.org/2000/svg"
   xmlns:sodipodi="http://sodipodi.sourceforge.net/DTD/sodipodi-0.dtd"
   xmlns:inkscape="http://www.inkscape.org/namespaces/inkscape"
   x="0"
   y="0"
   width="48"
   height="48"
   version="1.1"
   id="svg2"
   inkscape:version="0.91 r13725"
   sodipodi:docname="Delete.svg">
  <metadata
     id="metadata32">
    <rdf:RDF>
      <cc:Work
         rdf:about="">
        <dc:format>image/svg+xml</dc:format>
        <dc:type
           rdf:resource="http://purl.org/dc/dcmitype/StillImage" />
      </cc:Work>
    </rdf:RDF>
  </metadata>
  <sodipodi:namedview
     pagecolor="#ffffff"
     bordercolor="#666666"
     borderopacity="1"
     objecttolerance="10"
     gridtolerance="10"
     guidetolerance="10"
     inkscape:pageopacity="0"
     inkscape:pageshadow="2"
     inkscape:window-width="640"
     inkscape:window-height="480"
     id="namedview30"
     showgrid="false"
     inkscape:zoom="4.9166667"
     inkscape:cx="24"
     inkscape:cy="24"
     inkscape:window-x="0"
     inkscape:window-y="0"
     inkscape:window-maximized="0"
     inkscape:current-layer="svg2" />
  <defs
     id="defs4">
    <linearGradient
       x1="14.42529"
       y1="11.68966"
       x2="54.78791"
       y2="57.52354"
       gradientUnits="userSpaceOnUse"
       id="color-1">
      <stop
         offset="0"
         stop-color="#000000"
         stop-opacity="0.7"
         id="stop7" />
      <stop
         offset="1"
         stop-color="#000000"
         stop-opacity="0"
         id="stop9" />
    </linearGradient>
    <filter
       id="dropshadow">
      <feColorMatrix
         type="matrix"
         values="0 0 0 0 .05  0 0 0 0 .15  0 0 0 0 .1  0 0 0 .8 0"
         id="feColorMatrix12" />
      <feOffset
         dx="0"
         dy="1"
         id="feOffset14" />
      <feGaussianBlur
         stdDeviation="1"
         id="feGaussianBlur16"
         result="result1" />
      <feComposite
         in="SourceGraphic"
         id="feComposite18"
         in2="result1" />
    </filter>
  </defs>
  <g
     id="g3364">
    <g
       stroke-miterlimit="4"
       font-size="14"
       id="g22"
       style="font-size:14px;font-family:'Open Sans', sans-serif;fill:#000000" />
    <path
       d="M 5,45 C 3.89543,45 3,44.10457 3,43 L 3,5 C 3,3.89543 3.89543,3 5,3 l 38,0 c 1.10457,0 2,0.89543 2,2 l 0,38 c 0,1.10457 -0.89543,2 -2,2 z"
       stroke-miterlimit="10"
       id="path24"
       inkscape:connector-curvature="0"
       style="fill:#d50000;stroke-miterlimit:10;filter:url(#dropshadow)" />
    <path
       d="m 18.52874,36.31034 10e-6,0 -2.73564,-2.73564 0,-16.41377 -1.36782,-1.36782 0,-2.73563 c 0,0 2.73563,2.73563 2.73563,2.73563 l 10e-6,0 c 0,0 -2.73563,-2.73563 -2.73563,-2.73563 l 4.78734,0 1.36782,-1.36782 6.83908,0 c 0,0 1.36782,1.36782 1.36782,1.36782 l 4.78735,0 L 45,24.48277 45,43 c 0,1.10457 -0.89543,2 -2,2 L 26.08995,45 16.5967,35.50675 c -0.49583,-0.49583 -0.80359,-1.17974 -0.80359,-1.93204 z"
       stroke-miterlimit="10"
       id="path26"
       style="fill:url(#color-1);stroke-miterlimit:10"
       inkscape:connector-curvature="0" />
    <path
       d="m 15.79311,17.16092 16.41378,0 0,16.41378 c 0,1.5046 -1.23103,2.73563 -2.73563,2.73563 l -10.94252,0 c -1.5046,0 -2.73563,-1.23103 -2.73563,-2.73563 z m 6.27143,9.57471 -2.89977,2.89977 1.93546,1.93546 L 24,28.67109 26.89977,31.57086 28.83523,29.6354 25.93546,26.73563 28.83523,23.83586 26.89977,21.9004 24,24.80017 21.10023,21.9004 19.16477,23.83586 Z m 11.51017,-13.67815 0,2.73563 -19.14941,0 0,-2.73563 4.78735,0 1.36782,-1.36782 6.83908,0 1.36782,1.36782 z"
       stroke-miterlimit="4"
       id="path28"
       inkscape:connector-curvature="0"
       style="fill:#ffffff;stroke-width:0" />
  </g>
</svg>
